X: 20
T:Balquhidder Lasses
% Nottingham Music Database
%P:AAB
S:Alfred Moffat, via EF
M:4/4
L:1/4
K:Gm
P:A
|:d/2c/2|"Gm"BA/2B/2 G/2A/2B/2c/2|"Gm"dd "C7"g3/2g/2|"F"fc c/2d/2c/2A/2|\
"F"F/2G/2A/2B/2 "D7"cd/2c/2|
"Gm"BA/2B/2 G/2A/2B/2c/2|"Gm"dd "C7"g3/2g/2|"F"fc "D7"d/2c/2B/2A/2|"Gm"G2 G:|
P:B
d|"Gm"gg/2a/2 gd|"Gm"g/2a/2b/2a/2 "C7"gd/2=e/2|"F"ff/2g/2 f/2c/2A/2c/2|\
"F"F/2G/2A/2B/2 "D7"cd|
"Gm"gg/2a/2 gd|"Gm"g/2a/2b/2a/2 "C7"gd/2=e/2|"F"fc "D7"d/2c/2B/2A/2|\
"Gm"G2 "D7"Gd|
"Gm"gg/2a/2 gd|"Gm"g/2a/2b/2a/2 "C7"gd/2=e/2|"F"ff/2g/2 f/2c/2A/2c/2|\
"F"F/2G/2A/2B/2 "D7"cd/2c/2|
"Gm"BA/2B/2 G/2A/2B/2c/2|"Gm"dd "C7"g3/2g/2|"F"fc "D7"d/2c/2B/2A/2|"Gm"G2 G||<end>
<start>
